!!!Rep U0368
!!!Isim(Name): Yar Yad Oldum
!!!Yore(Region): Elazığ
!!!Makam: Uşşak
!!!Donanim(Key Signature): b-2
!!!Usul: 10/8, Serbest
**kern	**Dcent
*staff1	*.
=1-	=1-
*clefG2	*.
*k[b-]	*.
*M10/8	*.
8cc	0
8dd	0
4ee	0
8dd	0
8dd	0
16dd	0
16cc	0
4dd	0
8r	.
=2	=2
8cc	0
8dd	0
4ee	0
8dd	0
16dd	0
16cc	0
16dd	0
16ee	0
4cc	0
8b-	50
=3	=3
!!linebreak:default
8cc	0
8dd	0
4ee	0
8dd	0
8dd	0
16dd	0
16cc	0
4dd	0
8r	.
=4	=4
8ee	0
8dd	0
4ee	0
8dd	0
16dd	0
16cc	0
16dd	0
16ee	0
4cc	0
8b-	50
=5	=5
!!linebreak:default
8cc	0
8b-	50
8dd	0
8dd	0
8b-	50
8dd	0
8b-	50
4cc	0
8b-	50
=6	=6
8dd	0
8cc	0
8dd	0
8ee	0
8cc	0
8cc	0
8b-	50
4b-	50
8a	0
=7	=7
!!linebreak:default
8b-	50
8a	0
8cc	0
8cc	0
8b-	50
8b-	50
8a	0
4a	0
8r	.
=8	=8
8dd	0
8b-	50
4cc	0
8b-	50
16cc	0
16b-	50
16cc	0
16dd	0
4b-	50
8a	0
=9	=9
!!linebreak:default
4a	0
8a	0
4a	0
8a	0
8dd	0
4a	0
8r	.
=10!:	=10!:
4a	0
8g	0
8a	0
8g	0
8a	0
8b-	50
4cc	0
8dd	0
=11	=11
!!linebreak:default
4b-	50
8dd	0
8cc	0
8dd	0
8b-	50
8dd	0
4a	0
8r	.
=12:!	=12:!
*MX/X	*.
8eeQ	0
8ddQ	0
4eeQ	0
8ddQ	0
4ddQ	0
*-	*-
!! Uzun Hava Humdrum Bilgi Bankasi (Uzun Hava Humdrum Database)
!! 
!! Sertan Senturk, Parag Chordia & Erdal Tugcular
!! Georgia Tech Center for Music Technology, 2011
